X:3609
T:Leg of the Duck
O:england
R:Jig
C:Traditional, arr. Roger Landes
M:6/8
L:1/8
K:G
BGG AGG|BGG AGE|DGF G/2G/2GG|DGF G/2G/2GA|
BGG AGG|BGG AGF|D{E}D/2D/2D F2G|ADE FGA:|
{e}ddB cAA|dcB cAG|DGF G/2G/2GG|DGF G/2G/2GA|
{e}ddB cAA|dcB cAF|D{E}D/2D/2D F2G|ADE FGA:|
BBB cBc|ded dBd|g/2g/2gg gfd|gba gfd|
BBB cBc|ded d/2d/2de|=f/2f/2ff fed|=fdg =fdc:|


